X:1
T: Mr J J Henry's Strathspey
M: C|
B: James Campbell's Collection 1798
Z: source from Highland Music Trust, chords by Gary Whaleyy
L: 1/8
K: D
[|: "D" (D<A,)(F<D) (A<F)(d<A)|"G"B>c "D"(d/A/G/F/) "A"(F>E)E>F |"D"(D<A,)(F<D) (A<F)"A"(A>g)|"G/B"(f>d) "A"(A/d/c/e/) "D"d<D D2 :|]
[| "D"(d/e/f/g/ a)d "A"c>deF |"G"GB/A/ (G/F/E/D/) "A"C>E TE2 | "D"(d/e/f/g/ a)d "A"c>def | g>e"D"f>d "A"(Adce) "D" d2 |
| "D"(d/e/f/g/ a)d "A"c>def |"A"g>e"D"f>d "A"T(c>d) e2 |"D"(F<A)(D>F) "G"(G>B)"A"(A>g)|"D"(f>a) "A"(g/e/f/d/) "D" (Adce) d2 |]
